X:1
T:Duchess of Brunswick's Reel. Roose.0689, The
L:1/8
Q:3/8=110
M:6/8
I:linebreak $
K:G
V:1 treble 
V:1
 d | Bcd GAB | cde A2 c | Bcd GAB | A2 F D2 F | G2 B d2 B | g2 B d2 B | edc AGF | G3- G2 :: d |$ %10
 g2 d g2 d | bag fed | edc BAG | FGA DEF | G2 B d2 B | g2 d B2 G | AcB AGF | G3- G2 :| %18
